; HEADER_BLOCK_START
; generated by OrcaSlicer 2.3.1 on 2026-01-23 at 16:05:27
; total layer number: 103
; filament_density: 1.24
; filament_diameter: 1.75
; max_z_height: 20.60
; HEADER_BLOCK_END

; external perimeters extrusion width = 0.45mm
; perimeters extrusion width = 0.45mm
; infill extrusion width = 0.45mm
; solid infill extrusion width = 0.45mm
; top infill extrusion width = 0.40mm
; first layer extrusion width = 0.42mm

; EXECUTABLE_BLOCK_START
M73 P0 R57
M201 X500 Y500 Z100 E5000
M203 X500 Y500 Z10 E60
M204 P500 R1000 T500
M205 X8.00 Y8.00 Z0.40 E5.00 ; sets the jerk limits, mm/sec
;TYPE:Custom
G90 ; use absolute coordinates
M83 ; extruder relative mode
M140 S60 ; set final bed temp
M104 S150 ; set temporary nozzle temp to prevent oozing during homing
G4 S10 ; allow partial nozzle warmup
G28 ; home all axis
G1 Z50 F240
G1 X2 Y10 F3000
M104 S220 ; set final nozzle temp
M190 S60 ; wait for bed temp to stabilize
M109 S220 ; wait for nozzle temp to stabilize
G1 Z0.28 F240
G92 E0
G1 Y140 E10 F1500 ; prime the nozzle
G1 X2.3 F5000
M73 P0 R56
G92 E0
G1 Y10 E10 F1200 ; prime the nozzle
G92 E0
G90
G21
M83 ; use relative distances for extrusion
; filament start gcode
M106 S0
;LAYER_CHANGE
;Z:0.2
;HEIGHT:0.2
;BEFORE_LAYER_CHANGE
;0.2
G92 E0

G1 E-4 F3600
M73 P1 R56
;_SET_FAN_SPEED_CHANGING_LAYER
G1 Z.6 F9000
G1 X69.754 Y69.753
G1 Z.6
G1 Z.2
G1 E4 F2400
;TYPE:Skirt
;WIDTH:0.42
G1 F3000
G1 X69.991 Y69.517 E.01029
G1 X71.089 Y68.674 E.04254
G1 X71.669 Y68.339 E.02056
G1 X73.069 Y67.764 E.04652
G1 X75.303 Y67.434 E.0694
G1 X144.44 Y67.441 E2.12437
G1 X146.079 Y67.572 E.05052
G1 X146.752 Y67.723 E.02122
G1 X148.091 Y68.221 E.04389
G1 X148.701 Y68.546 E.02124
G1 X149.858 Y69.382 E.04386
G1 X150.358 Y69.859 E.02123
G1 X151.25 Y70.973 E.04386
G1 X151.604 Y71.565 E.02119
G1 X152.225 Y73.027 E.04882
G1 X152.542 Y74.956 E.06005
G1 X152.566 Y144.7 E2.14305
G1 X152.364 Y146.401 E.05262
G1 X152.192 Y147.047 E.02054
G1 X151.662 Y148.328 E.04259
G1 X151.327 Y148.909 E.02062
G1 X150.484 Y150.009 E.04259
G1 X150.009 Y150.483 E.02061
G1 X148.911 Y151.326 E.04254
G1 X148.331 Y151.661 E.02056
G1 X146.931 Y152.236 E.04652
G1 X144.691 Y152.565 E.06956
G1 X75.171 Y152.562 E2.13615
G1 X73.598 Y152.364 E.04872
G1 X72.93 Y152.183 E.02128
G1 X71.67 Y151.661 E.04189
G1 X71.091 Y151.327 E.02056
G1 X69.991 Y150.484 E.04259
G1 X69.517 Y150.009 E.02061
G1 X68.674 Y148.911 E.04254
G1 X68.339 Y148.331 E.02057
G1 X67.812 Y147.059 E.04231
G1 X67.639 Y146.415 E.0205
G1 X67.434 Y144.7 E.05306
G1 X67.434 Y75.3 E2.13247
G1 X67.636 Y73.599 E.05262
G1 X67.808 Y72.953 E.02055
G1 X68.338 Y71.672 E.04259
G1 X68.673 Y71.091 E.02062
G1 X69.516 Y69.991 E.04259
G1 X69.726 Y69.782 E.00909
G1 X69.99 Y70.046 F9000
G1 F3000
G1 X70.22 Y69.816 E.01
G1 X71.319 Y68.973 E.04254
G1 X71.813 Y68.688 E.01754
G1 X73.269 Y68.094 E.04833
G1 X75.303 Y67.812 E.0631
G1 X144.44 Y67.818 E2.12437
G1 X146.046 Y67.948 E.04953
G1 X146.621 Y68.077 E.0181
G1 X147.96 Y68.574 E.04389
G1 X148.48 Y68.852 E.01812
G1 X149.637 Y69.688 E.04386
G1 X150.064 Y70.095 E.01811
G1 X150.955 Y71.209 E.04386
G1 X151.258 Y71.714 E.01807
G1 X151.896 Y73.231 E.05058
G1 X152.169 Y75.006 E.0552
G1 X152.189 Y144.7 E2.14149
G1 X151.99 Y146.352 E.05112
G1 X151.839 Y146.914 E.01791
G1 X151.313 Y148.185 E.04225
G1 X151.028 Y148.68 E.01755
G1 X150.184 Y149.779 E.04259
G1 X149.78 Y150.184 E.01758
G1 X148.681 Y151.027 E.04254
G1 X148.187 Y151.312 E.01754
G1 X146.731 Y151.906 E.04833
G1 X144.691 Y152.188 E.06326
G1 X75.192 Y152.185 E2.13553
G1 X73.648 Y151.99 E.04782
G1 X73.107 Y151.848 E.01716
G1 X71.815 Y151.313 E.04299
G1 X71.32 Y151.028 E.01754
G1 X70.221 Y150.184 E.04259
G1 X69.816 Y149.78 E.01758
G1 X68.973 Y148.681 E.04254
G1 X68.688 Y148.187 E.01755
G1 X68.094 Y146.731 E.04832
G1 X67.811 Y144.7 E.06299
G1 X67.811 Y75.3 E2.13247
G1 X68.01 Y73.648 E.05111
G1 X68.161 Y73.086 E.01791
G1 X68.687 Y71.815 E.04225
G1 X68.972 Y71.32 E.01755
G1 X69.816 Y70.22 E.04259
G1 X69.962 Y70.074 E.00635
; printing object Drone.stl id:15 copy 0
G1 E-2.8 F3600
;WIPE_START
G1 F3000
G1 X70.22 Y69.816 E-.43857
G1 X70.724 Y69.43 E-.76143
;WIPE_END
G1 Z.6 F9000
G1 X129.103 Y81.952 Z.6
G1 Z.2
G1 E4 F2400
;TYPE:Inner wall
;WIDTH:0.419999
G1 F900
G1 X129.166 Y81.876 E.00303
G1 X130.252 Y79.471 E.08106
G1 X131.603 Y77.376 E.07661
G1 X133.249 Y75.504 E.07661
G1 X135.155 Y73.897 E.07661
G1 X137.278 Y72.589 E.07661
G1 X139.571 Y71.61 E.07661
G1 X141.983 Y70.981 E.07661
G1 X144.447 Y70.718 E.07613
G1 X145.704 Y70.826 E.03876
G1 X146.861 Y71.256 E.03794
G1 X147.862 Y71.98 E.03794
G1 X148.633 Y72.944 E.03794
G1 X149.117 Y74.072 E.03772
G1 X149.246 Y75.016 E.02927
G1 X149.291 Y75.684 E.02058
G1 X149.291 Y144.653 E2.11923
G1 X149.127 Y145.892 E.0384
G1 X148.671 Y146.992 E.03659
G1 X147.942 Y147.942 E.03681
G1 X146.992 Y148.671 E.03681
G1 X145.892 Y149.127 E.03658
G1 X144.678 Y149.287 E.03764
G1 X142.191 Y149.055 E.07673
G1 X139.818 Y148.468 E.07512
G1 X137.411 Y147.479 E.07995
G1 X135.253 Y146.174 E.07749
G1 X133.314 Y144.559 E.07753
G1 X131.691 Y142.73 E.07513
G1 X130.266 Y140.554 E.07994
G1 X129.165 Y138.124 E.08197
G1 X129.061 Y137.968 E.00577
G1 X128.883 Y137.841 E.00671
G1 X128.65 Y137.791 E.00731
G1 X91.272 Y137.791 E1.14852
G1 X91.019 Y137.898 E.00843
G1 X90.835 Y138.124 E.00897
G1 X89.734 Y140.554 E.08197
G1 X88.309 Y142.73 E.07994
G1 X86.686 Y144.559 E.07513
G1 X84.747 Y146.174 E.07753
G1 X82.589 Y147.479 E.07749
G1 X80.182 Y148.468 E.07995
G1 X77.809 Y149.055 E.07512
G1 X75.322 Y149.287 E.07673
G1 X74.108 Y149.127 E.03764
G1 X73.008 Y148.671 E.03658
G1 X72.058 Y147.942 E.03681
G1 X71.329 Y146.992 E.03681
G1 X70.873 Y145.892 E.03659
G1 X70.709 Y144.653 E.0384
G1 X70.709 Y75.347 E2.12959
G1 X70.873 Y74.108 E.0384
M73 P2 R56
G1 X71.329 Y73.008 E.03659
G1 X72.058 Y72.058 E.03681
G1 X73.008 Y71.329 E.03681
G1 X74.108 Y70.873 E.03658
G1 X75.317 Y70.713 E.03747
G1 X77.809 Y70.945 E.07689
G1 X80.258 Y71.552 E.07753
G1 X82.588 Y72.52 E.07753
G1 X84.747 Y73.826 E.07753
G1 X86.686 Y75.441 E.07753
G1 X88.361 Y77.328 E.07753
G1 X89.734 Y79.445 E.07753
G1 X90.835 Y81.876 E.08201
G1 X90.939 Y82.032 E.00577
G1 X91.117 Y82.159 E.00671
G1 X91.35 Y82.209 E.00731
G1 X128.728 Y82.209 E1.14852
G1 X128.981 Y82.102 E.00844
G1 X129.078 Y81.983 E.00471
G1 X128.803 Y81.712 F9000
;TYPE:Outer wall
G1 F900
G1 X129.901 Y79.28 E.08198
G1 X131.284 Y77.135 E.07843
G1 X132.97 Y75.219 E.07843
G1 X134.921 Y73.573 E.07843
G1 X137.094 Y72.234 E.07843
G1 X139.441 Y71.232 E.07843
G1 X141.911 Y70.588 E.07843
G1 X144.443 Y70.318 E.07822
G1 X145.792 Y70.434 E.04161
G1 X147.051 Y70.902 E.04127
G1 X148.139 Y71.688 E.04127
G1 X148.978 Y72.737 E.04127
G1 X149.504 Y73.965 E.04104
G1 X149.641 Y74.962 E.03092
G1 X149.69 Y75.684 E.02224
G1 X149.69 Y144.68 E2.12004
G1 X149.515 Y145.996 E.04081
G1 X149.02 Y147.193 E.0398
G1 X148.227 Y148.227 E.04003
G1 X147.193 Y149.02 E.04003
G1 X145.996 Y149.515 E.0398
G1 X144.685 Y149.688 E.04063
G1 X142.125 Y149.449 E.07903
G1 X139.694 Y148.847 E.07694
G1 X137.231 Y147.836 E.0818
G1 X135.021 Y146.499 E.07936
G1 X133.036 Y144.846 E.07938
G1 X131.374 Y142.973 E.07695
G1 X129.915 Y140.746 E.08179
G1 X128.784 Y138.248 E.08429
G1 X128.65 Y138.19 E.00448
G1 X91.319 Y138.19 E1.14708
G1 X91.198 Y138.288 E.0048
G1 X90.085 Y140.746 E.08291
G1 X88.626 Y142.973 E.08179
G1 X86.964 Y144.846 E.07695
G1 X84.979 Y146.499 E.07938
G1 X82.769 Y147.836 E.07936
M73 P2 R55
G1 X80.306 Y148.847 E.0818
G1 X77.875 Y149.449 E.07694
G1 X75.315 Y149.688 E.07903
G1 X74.004 Y149.515 E.04063
G1 X72.807 Y149.02 E.0398
G1 X71.773 Y148.227 E.04003
G1 X70.98 Y147.193 E.04003
G1 X70.485 Y145.996 E.0398
G1 X70.31 Y144.68 E.04081
G1 X70.31 Y75.32 E2.13121
G1 X70.485 Y74.004 E.04081
G1 X70.98 Y72.807 E.0398
G1 X71.773 Y71.773 E.04003
G1 X72.807 Y70.98 E.04003
G1 X74.004 Y70.485 E.0398
G1 X75.309 Y70.312 E.04046
G1 X77.875 Y70.551 E.0792
G1 X80.383 Y71.173 E.07938
G1 X82.768 Y72.164 E.07938
G1 X84.979 Y73.501 E.07938
G1 X86.964 Y75.154 E.07938
G1 X88.679 Y77.086 E.07938
G1 X90.085 Y79.253 E.07938
G1 X91.216 Y81.752 E.0843
G1 X91.35 Y81.81 E.00448
G1 X128.681 Y81.81 E1.14708
G1 X128.771 Y81.737 E.00357
G1 E-2.8 F3600
;WIPE_START
G1 F900
G1 X129.189 Y80.828 E-1.2
;WIPE_END
G1 Z.6 F9000
G1 X76.027 Y129.99 Z.6
G1 Z.2
G1 E4 F2400
;TYPE:Inner wall
G1 F900
G1 X75.972 Y129.857 E.00444
G1 X75.792 Y128.949 E.02845
G1 X75.792 Y91.107 E1.16277
G1 X75.972 Y90.143 E.03013
G1 X76.057 Y89.939 E.00678
G1 X76.548 Y89.204 E.02718
G1 X76.704 Y89.048 E.00678
G1 X77.439 Y88.557 E.02718
G1 X77.643 Y88.472 E.00678
G1 X78.551 Y88.292 E.02845
G1 X141.393 Y88.292 E1.93095
G1 X142.357 Y88.472 E.03013
M73 P3 R55
G1 X142.561 Y88.557 E.00678
G1 X143.296 Y89.048 E.02718
G1 X143.452 Y89.204 E.00678
G1 X143.943 Y89.939 E.02718
G1 X144.028 Y90.143 E.00678
G1 X144.208 Y91.051 E.02845
G1 X144.208 Y128.893 E1.16277
G1 X144.028 Y129.857 E.03013
G1 X143.943 Y130.061 E.00678
G1 X143.452 Y130.796 E.02718
G1 X143.296 Y130.952 E.00678
G1 X142.561 Y131.443 E.02718
G1 X142.357 Y131.528 E.00678
G1 X141.449 Y131.708 E.02845
G1 X78.607 Y131.708 E1.93095
G1 X77.643 Y131.528 E.03013
G1 X77.439 Y131.443 E.00678
G1 X76.622 Y130.885 E.03043
G1 X76.057 Y130.061 E.03071
G1 X76.043 Y130.027 E.00111
G1 X76.395 Y129.849 F9000
;TYPE:Outer wall
G1 F900
G1 X76.388 Y129.839 E.00036
G1 X76.19 Y128.911 E.02918
G1 X76.19 Y91.107 E1.16159
G1 X76.363 Y90.221 E.02774
G1 X76.879 Y89.425 E.02914
G1 X77.661 Y88.888 E.02914
G1 X78.589 Y88.69 E.02918
G1 X141.393 Y88.69 E1.92977
G1 X142.279 Y88.863 E.02774
G1 X143.075 Y89.379 E.02914
G1 X143.612 Y90.161 E.02914
G1 X143.81 Y91.089 E.02918
G1 X143.81 Y128.893 E1.16159
G1 X143.637 Y129.779 E.02774
G1 X143.121 Y130.575 E.02914
G1 X142.339 Y131.112 E.02914
G1 X141.411 Y131.31 E.02918
G1 X78.607 Y131.31 E1.92977
G1 X77.721 Y131.137 E.02774
G1 X76.925 Y130.621 E.02914
G1 X76.417 Y129.882 E.02755
G1 E-2.8 F3600
;WIPE_START
G1 F900
G1 X76.388 Y129.839 E-.06212
G1 X76.19 Y128.912 E-1.13788
;WIPE_END
G1 Z.6 F9000
G1 X146.007 Y71.06 Z.6
G1 Z.2
G1 E4 F2400
;TYPE:Bottom surface
;WIDTH:0.420121
G1 F2100
G1 X148.651 Y73.704 E.11494
G1 X148.842 Y74.148 E.01486
G1 X148.886 Y74.472 E.01005
G1 X145.507 Y71.093 E.14688
G1 X144.924 Y71.043 E.01801
G1 X148.971 Y75.09 E.17593
G1 X149.009 Y75.368 E.0086
G1 X149.009 Y75.662 E.00904
G1 X144.359 Y71.012 E.20211
G1 X143.877 Y71.063 E.0149
G1 X149.009 Y76.195 E.22306
G1 X149.009 Y76.728 E.0164
G1 X143.395 Y71.115 E.24402
G1 X142.913 Y71.166 E.0149
G1 X149.009 Y77.262 E.26497
G1 X149.009 Y77.795 E.0164
G1 X142.431 Y71.218 E.28592
G1 X141.959 Y71.28 E.01462
G1 X149.009 Y78.329 E.30642
G1 X149.009 Y78.862 E.0164
G1 X141.536 Y71.39 E.32482
G1 X141.113 Y71.5 E.01344
G1 X149.009 Y79.396 E.34321
G1 X149.009 Y79.929 E.0164
G1 X140.69 Y71.61 E.3616
G1 X140.267 Y71.721 E.01344
G1 X149.009 Y80.463 E.38
G1 X149.009 Y80.996 E.0164
G1 X139.844 Y71.831 E.39839
G1 X139.662 Y71.878 E.00576
G1 X139.449 Y71.969 E.00714
G1 X149.009 Y81.529 E.41556
G1 X149.009 Y82.063 E.0164
G1 X139.075 Y72.129 E.43181
G1 X138.701 Y72.289 E.01249
G1 X149.009 Y82.596 E.44806
G1 X149.009 Y83.13 E.0164
G1 X138.327 Y72.448 E.46431
G1 X137.953 Y72.608 E.01249
G1 X149.009 Y83.663 E.48056
G1 X149.009 Y84.197 E.0164
G1 X137.58 Y72.768 E.49681
G1 X137.408 Y72.841 E.00573
G1 X137.229 Y72.951 E.00645
G1 X149.009 Y84.73 E.51203
G1 X149.009 Y85.264 E.0164
G1 X136.899 Y73.154 E.52638
G1 X136.569 Y73.358 E.01192
G1 X149.009 Y85.797 E.54073
G1 X149.009 Y86.33 E.0164
G1 X136.239 Y73.561 E.55507
G1 X135.909 Y73.764 E.01192
M73 P4 R55
G1 X149.009 Y86.864 E.56942
G1 X149.009 Y87.397 E.0164
G1 X135.579 Y73.968 E.58377
G1 X135.258 Y74.18 E.01183
G1 X149.009 Y87.931 E.59773
G1 X149.009 Y88.464 E.0164
G1 X134.968 Y74.424 E.61031
G1 X134.679 Y74.668 E.01164
G1 X149.009 Y88.998 E.62289
G1 X149.009 Y89.531 E.0164
G1 X134.39 Y74.912 E.63546
G1 X134.1 Y75.156 E.01164
G1 X149.009 Y90.065 E.64804
G1 X149.009 Y90.598 E.0164
G1 X133.811 Y75.4 E.66062
G1 X133.522 Y75.645 E.01164
G1 X149.009 Y91.131 E.6732
G1 X149.009 Y91.665 E.0164
G1 X133.262 Y75.918 E.68449
G1 X133.012 Y76.202 E.01162
G1 X149.009 Y92.198 E.69534
G1 X149.009 Y92.732 E.0164
G1 X132.763 Y76.486 E.70619
G1 X132.513 Y76.77 E.01162
G1 X149.009 Y93.265 E.71704
G1 X149.009 Y93.799 E.0164
M73 P4 R54
G1 X132.263 Y77.053 E.72789
G1 X132.014 Y77.337 E.01162
G1 X149.009 Y94.332 E.73875
G1 X149.009 Y94.866 E.0164
G1 X144.324 Y90.18 E.20366
G1 X144.256 Y89.926 E.00809
G1 X144.181 Y89.786 E.00488
G1 X143.684 Y89.043 E.02747
G1 X143.575 Y88.91 E.00528
G1 X142.715 Y88.32 E.03205
G1 X142.611 Y88.26 E.00371
G1 X142.32 Y88.176 E.00931
G1 X131.775 Y77.632 E.45837
G1 X131.566 Y77.956 E.01186
G1 X141.654 Y88.044 E.43852
G1 X141.398 Y88.009 E.00794
G1 X141.085 Y88.009 E.00961
G1 X131.356 Y78.28 E.42289
G1 X131.147 Y78.604 E.01186
G1 X140.552 Y88.009 E.40879
G1 X140.018 Y88.009 E.0164
G1 X130.938 Y78.929 E.3947
G1 X130.729 Y79.253 E.01186
G1 X139.485 Y88.009 E.3806
G1 X138.951 Y88.009 E.0164
G1 X130.52 Y79.577 E.3665
G1 X130.349 Y79.94 E.01232
G1 X138.418 Y88.009 E.35074
G1 X137.884 Y88.009 E.0164
G1 X130.182 Y80.306 E.33482
G1 X130.015 Y80.673 E.01238
G1 X137.351 Y88.009 E.31889
G1 X136.817 Y88.009 E.0164
G1 X129.848 Y81.039 E.30296
G1 X129.681 Y81.406 E.01238
G1 X136.284 Y88.009 E.28703
G1 X135.751 Y88.009 E.0164
G1 X129.514 Y81.772 E.27111
G1 X129.341 Y82.133 E.01229
G1 X135.217 Y88.009 E.25543
G1 X134.684 Y88.009 E.0164
G1 X129.058 Y82.383 E.24455
G1 X128.795 Y82.48 E.00862
G1 X128.622 Y82.48 E.00532
G1 X134.15 Y88.009 E.24033
G1 X133.617 Y88.009 E.0164
G1 X128.088 Y82.48 E.24032
G1 X127.555 Y82.48 E.01639
G1 X133.083 Y88.009 E.24031
G1 X132.55 Y88.009 E.0164
G1 X127.022 Y82.481 E.2403
G1 X126.488 Y82.481 E.01639
G1 X132.016 Y88.009 E.2403
G1 X131.483 Y88.009 E.0164
G1 X125.955 Y82.481 E.24029
G1 X125.422 Y82.481 E.01639
G1 X130.95 Y88.009 E.24028
G1 X130.416 Y88.009 E.0164
G1 X124.889 Y82.481 E.24028
G1 X124.355 Y82.481 E.01639
G1 X129.883 Y88.009 E.24027
G1 X129.349 Y88.009 E.0164
G1 X123.822 Y82.482 E.24026
G1 X123.289 Y82.482 E.01639
G1 X128.816 Y88.009 E.24026
G1 X128.282 Y88.009 E.0164
G1 X122.755 Y82.482 E.24025
G1 X122.222 Y82.482 E.01639
G1 X127.749 Y88.009 E.24024
G1 X127.215 Y88.009 E.0164
G1 X121.689 Y82.482 E.24023
G1 X121.156 Y82.482 E.01639
G1 X126.682 Y88.009 E.24023
G1 X126.149 Y88.009 E.0164
G1 X120.622 Y82.482 E.24022
G1 X120.089 Y82.483 E.01639
G1 X125.615 Y88.009 E.24021
G1 X125.082 Y88.009 E.0164
G1 X119.556 Y82.483 E.24021
G1 X119.022 Y82.483 E.01639
G1 X124.548 Y88.009 E.2402
G1 X124.015 Y88.009 E.0164
G1 X118.489 Y82.483 E.24019
G1 X117.956 Y82.483 E.01639
G1 X123.481 Y88.009 E.24019
G1 X122.948 Y88.009 E.0164
G1 X117.423 Y82.483 E.24018
G1 X116.889 Y82.484 E.01639
G1 X122.414 Y88.009 E.24017
G1 X121.881 Y88.009 E.0164
G1 X116.356 Y82.484 E.24016
G1 X115.823 Y82.484 E.01639
G1 X121.348 Y88.009 E.24016
G1 X120.814 Y88.009 E.0164
G1 X115.29 Y82.484 E.24015
G1 X114.756 Y82.484 E.01639
G1 X120.281 Y88.009 E.24014
G1 X119.747 Y88.009 E.0164
G1 X114.223 Y82.484 E.24014
G1 X113.69 Y82.485 E.01639
G1 X119.214 Y88.009 E.24013
G1 X118.68 Y88.009 E.0164
G1 X113.156 Y82.485 E.24012
G1 X112.623 Y82.485 E.01639
G1 X118.147 Y88.009 E.24012
G1 X117.614 Y88.009 E.0164
G1 X112.09 Y82.485 E.24011
G1 X111.557 Y82.485 E.01639
G1 X117.08 Y88.009 E.2401
G1 X116.547 Y88.009 E.0164
G1 X111.023 Y82.485 E.24009
G1 X110.49 Y82.486 E.01639
G1 X116.013 Y88.009 E.24009
G1 X115.48 Y88.009 E.0164
G1 X109.957 Y82.486 E.24008
G1 X109.423 Y82.486 E.01639
G1 X114.946 Y88.009 E.24007
G1 X114.413 Y88.009 E.0164
G1 X108.89 Y82.486 E.24007
G1 X108.357 Y82.486 E.01639
G1 X113.879 Y88.009 E.24006
G1 X113.346 Y88.009 E.0164
G1 X107.824 Y82.486 E.24005
G1 X107.29 Y82.487 E.01639
G1 X112.813 Y88.009 E.24004
G1 X112.279 Y88.009 E.0164
G1 X106.757 Y82.487 E.24004
G1 X106.224 Y82.487 E.01639
G1 X111.746 Y88.009 E.24003
G1 X111.212 Y88.009 E.0164
G1 X105.69 Y82.487 E.24002
G1 X105.157 Y82.487 E.01639
G1 X110.679 Y88.009 E.24002
G1 X110.145 Y88.009 E.0164
G1 X104.624 Y82.487 E.24001
G1 X104.091 Y82.487 E.01639
G1 X109.612 Y88.009 E.24
G1 X109.078 Y88.009 E.0164
G1 X103.557 Y82.488 E.24
G1 X103.024 Y82.488 E.01639
